!!!!SEGMENT: pl-kc--40102-iii-1-saf--002-008_zielenski-mikolaj--communiones-totius-anni-in-festo-s-nicolai-episcopi-et-confessoris-semel-iuravi.krn
!!!cenid: 16xx:1539
!!!COM: Zieleński, Mikołaj
!!!COM-rismID: pe30013481
!!!CDT: <1611->1611
!!!CNT: Polish
!!!GTL: Communiones totius anni
!!!OTL: In festo S. Nicolai Episcopi et Confessoris/Semel iuravi
!!!OMV: 008
!!!PDT: 1611
!!!AGN:
!!!YEC: Copyright 2022 Narodowy Instytut Fryderyka Chopina (https://polishscores.org)
!!!YEM: License CC-BY-4.0 (https://creativecommons.org/licenses/by/4.0)
!!!SMS-siglum: PL-Kc
!!!SMS-shelfmark: 40102 III/1 Saf.
!!!SMS-shelfwork: 002-008 G
!!!SMS-variant:
!!!SMS-altvar:
!!!NIFC-rismSourceID: 990069887
!!!NIFC-rismChildID: 990069887
!!!NIFC-islandoraID: none
!!!URL-pdf-islandora:
!!!URL-scan: https://cyfrowe.mnk.pl/dlibra/publication/24235/edition/23926/content?ref=desc @EN{Scan on The National Museum in Krakow Website} @PL{Skany w portalu Biblioteka Cyfrowa Muzeum Narodowego w Krakowie}
!!!IIIF:
!!!ONB-nifc: UWAGA: str. 49-50. Uwaga: W xml metrum 2/1 do źródłowego C| i odpowiednio 3/1 do 3/2
!!!AIN: 4 organ
!!!key:
**kern	**kern	**kern	**kern
*group1	*group1	*group1	*group1
*part4	*part3	*part2	*part1
*staff4	*staff3	*staff2	*staff1
*I""Organo	*I""Organo	*I""Organo	*I""Organo
*I''org	*I''org	*I''org	*I''org
*Iorgan	*Iorgan	*Iorgan	*Iorgan
*ICklav	*ICklav	*ICklav	*ICklav
*clefF4	*clefC4	*clefC3	*clefC1
*k[]	*k[]	*k[]	*k[]
*d:	*d:	*d:	*d:
*M2/1	*M2/1	*M2/1	*M2/1
*met(C|)	*met(C|)	*met(C|)	*met(C|)
=1	=1	=1	=1
!	!	!LO:TX:a:t=Semel iuraui	!LO:TX:a:t=In feſto S. Nicolai Epiſcopi, & Confeſsoris, Solus Baſsus canet.
1r	1d	1f	1a
1D	2d\	2f\	2a\
.	2d\	2f\	2a\
=2-	=2-	=2-	=2-
2D/	1f	1a	1dd
2D/	.	.	.
1A	1e	[y1a	1cc#X
=3	=3	=3	=3
!	!	!LO:N:xstem:cue:vis=4	!
1F#X	2.d\	2a\]	2r
.	.	2a\	2dd\
.	4c\	.	.
2r	4B-X\	1.d	2.dd\
.	4A/	.	.
2G\	2B-\	.	.
.	.	.	4cc\
=4-	=4-	=4-	=4-
2G\	2G/	.	2b-X\
2Fny\	2.d\	2d\	2a\
1E	.	1e	1g
.	8c#X\	.	.
.	8Bny\	.	.
.	2c#\	.	.
=5	=5	=5	=5
1D	2.d\	2A/	2f/
.	.	2f\	2a\
.	4d\	.	.
0r	2c#X\	2e\	2a\
.	2d\	1f	2a\
=6-	=6-	=6-	=6-
.	1B-X	.	1dd
.	.	2g\	.
2r	2.A/	2a\	2.cc\
2AA/	.	[<2e\	.
.	4Bny\	.	4b\
=7	=7	=7	=7
2AA/	2c\	2e\]	4a\
.	.	.	4e/
2AA/	2c\	1e	2.a\
1E	2B\	.	.
.	.	.	8g#X/
!	!	!	!LO:SIC:v:s=8f#/
.	.	.	8f/
.	2B\	1e	2g#/
=8-	=8-	=8-	=8-
1C#X	4A/	.	2a\
.	4E/	.	.
.	4A/	2e\	2e/
.	4G/	.	.
2r	4F/	[y1A	2.f/
.	4E/	.	.
2D/	[y2F/	.	.
.	.	.	4gny/
=9	=9	=9	=9
!	!LO:N:xstem:cue	!LO:N:xstem:cue:vis=4	!
2D/	4F/]	2A/]	4a\
.	4G/	.	4d/
2C/	2.A/	2e\	2a\
1BB	.	2.d\	2b\
.	8G#X/	.	.
!	!LO:SIC:v:s=8F#/	!	!
.	8F/	.	.
.	2G#/	.	1dd
.	.	4e\	.
=10-	=10-	=10-	=10-
2AA/	4A/	2f\	.
.	4B\	.	.
2A\	4c\	4e\	4cc\
.	4d\	4d\	4b\
2A\	2e\	2c/	4cc\
.	.	.	4a\
!	!	!	!LO:SIC:v:t=błędna wysokość custos
2G#X\	2B\	2e\	[<2b\
*custos:A	*custos:c	*custos:e	*custos:g
!!LO:PB:g=original
=11	=11	=11	=11
4A\	1c	1e	2b\]
4AA/	.	.	.
4C/	.	.	2.a\
4D/	.	.	.
1E	1B	1e	.
.	.	.	8g#X/
!	!	!	!LO:SIC:v:s=8f#/
.	.	.	8f/
.	.	.	2g#/
=12-	=12-	=12-	=12-
2F\	0A	2c/	2a\
2D/	.	1f	1a
2.F\	.	.	.
.	.	4e\	4gny/
4G\	.	4d\	4f/
=13	=13	=13	=13
2A\	0r	4c/	4e/
.	.	4A/	4f/
2B-X\	.	2.d\	4g/
.	.	.	4d/
2A\	.	.	2f/
.	.	8c/	.
.	.	8B/	.
2AA/	.	2c\	2e/
=14-	=14-	=14-	=14-
1D	2r	2d\	2.f/
.	2.d\	2.f\	.
.	.	.	4g/
1r	.	.	2a\
.	4c#X\	4e\	.
.	2d\	4.f\	4r
.	.	.	[<4dd\
.	.	8g\	.
=15	=15	=15	=15
0r	2A/	2a\	4dd\]
.	.	.	4cc#X\
.	4r	4r	2dd\
.	4d\	4f#X\	.
.	4B\	4g\	2g/
.	4.c\	4.e\	.
.	.	.	4r
.	8c\	8e\	.
.	4A/	4e\	4ccny\
=16	=16	=16	=16
1r	4.d\	4.f#X\	4a\
.	.	.	4.b\
.	8d\	8f#\	.
.	1e	4g#X\	.
.	.	.	8b\
.	.	2a\	4cc\
2r	.	.	2b\
.	.	4g#X\	.
4r	4A/	2a\	2a\
[>4A\	[>4c\	.	.
=17	=17	=17	=17
4A\]	4c\]	2e\	0r
4G#X\	4B\	.	.
2A\	4.c\	4r	.
.	.	2a\	.
.	8d\	.	.
2E\	4e\	.	.
.	4E/	4g#X\	.
4r	4.F/	2a\	.
2D/	.	.	.
.	8G/	.	.
=18-	=18-	=18-	=18-
.	1A	2e\	2r
4C#X/	.	.	.
2D/	.	2f\	4r
.	.	.	2dd\
2AA/	2A/	2e\	.
.	.	.	4cc#X\
4r	2F#X/	4A/	2dd\
4D/	.	4A/	.
=19	=19	=19	=19
4BB/	2G/	4d\	2g/
4.C/	.	4.e\	.
.	4r	.	4r
8C/	.	8e\	.
4AA/	4A/	4e\	4cc\
2D/	4A/	2f#X\	4a\
.	4.d\	.	4.b\
4GG/	.	4g\	.
.	8d\	.	8b\
2G\	4B\	4d\	4g/
=20-	=20-	=20-	=20-
.	2A/	4c/	2a\
4F#X\	.	2d\	.
2G\	4B\	.	2g/
.	4G/	4e\	.
2D/	4.A/	2fny\	4r
.	.	.	2a\
.	8B\	.	.
4r	4c\	[y2e\	.
4E\	4B\	.	4g#X/
=21	=21	=21	=21
!	!	!LO:N:xstem:cue	!
4C#X/	4A\	4e\]	2a\
4.D/	4.F#X/	4.A/	.
.	.	.	4d/
8D/	8F#/	8A/	.
4BB/	4G/	4B/	4dd\
2Cny/	2G/	4.e\	4g/
.	.	.	4.cc\
.	.	8e\	.
4AA/	4A/	4e\	.
.	.	.	8cc\
4FF/	4c\	2f\	4a\
=22-	=22-	=22-	=22-
1C	2c\	.	1g
.	.	8e\	.
.	.	8d\	.
.	2G/	2e\	.
1FF	2A/	4f\	1f
.	.	4c/	.
.	4A/	4c/	.
.	4B\	4d\	.
=23	=23	=23	=23
0r	4.c\	4.e\	4r
.	.	.	4a\
.	8c\	8e\	.
.	4c\	4e\	4a\
.	4B\	4d\	4b\
.	2A/	4e\	4.cc\
.	.	4c/	.
.	.	.	8cc\
.	4A/	4.e\	4cc\
.	4G/	.	4b\
.	.	8e\	.
=24-	=24-	=24-	=24-
2D/	4F/	2A/	2a\
.	4E/	.	.
4D/	4F/	4f\	4a\
4E\	4G/	4e\	4g/
4.F\	4.A/	4.d\	4.f/
8F\	8A/	8d\	8f/
4F\	4A/	[y2c/	2f/
4G\	4B\	.	.
=25	=25	=25	=25
!	!	!LO:N:xstem:cue	!
2A\	2c\	4c/]	1e
.	.	4c/	.
4E\	4G/	4B/	.
4E\	4G/	4e\	.
2F\	2A/	4c/	0r
.	.	4A/	.
2D/	2.d\	2f\	.
=26-	=26-	=26-	=26-
2A\	.	1e	.
.	8c#X\	.	.
.	8B\	.	.
2AA/	2c#\	.	.
1D	2.d\	4d\	2a\
.	.	4f\	.
.	.	4f\	4a\
.	8cny\	4g\	4b\
.	8B\	.	.
*custos:AA	*custos:A	*custos:a	*custos:cc
!!LO:LB:g=original
=27	=27	=27	=27
1r	2A/	4.a\	4.cc\
.	.	8a\	8cc\
.	4A/	4a\	4cc\
.	4B\	8g\	4dd\
.	.	8f\	.
2AA/	4.c\	1e	2ee\
.	8c\	.	.
4AA/	4c\	.	4ee\
4BB/	8B\	.	4dd\
.	8A\	.	.
=28-	=28-	=28-	=28-
4.C/	2G/	4.e\	4.cc\
8C/	.	8e\	8cc\
4C/	4G/	4e\	4cc\
4D/	8d\	4f\	8b\
.	8c\	.	8a\
2E\	2B\	2e\	2g#X/
4BB/	2d\	4g\	[<2b\
4BB/	.	4f\	.
=29	=29	=29	=29
2C/	2c\	4e\	4b\]
.	.	4d\	4a\
2AA/	2c\	2e\	2.a\
1E	1B	0e	.
.	.	.	8g#X/
!	!	!	!LO:SIC:v:s=8f#/
.	.	.	8f/
.	.	.	2g#/
=30-	=30-	=30-	=30-
1AA	4c\	.	4a\
.	4A/	.	4cc\
.	4A/	.	4cc\
.	4G/	.	4b\
1r	4F/	4r	2a\
.	2D/	4f\	.
.	.	4f\	4a\
.	4E/	4e\	4gny/
=31	=31	=31	=31
0r	2F/	4.d\	2.f/
.	.	8d\	.
.	4F/	4d\	.
.	4G/	8c/	8e/
.	.	8B/	8d/
.	2A/	4c/	8f/
.	.	.	8e/
.	.	4c/	2e/
.	2F/	4.A/	.
.	.	.	4d/
.	.	8B/	.
=32-	=32-	=32-	=32-
4r	2E/	2c/	1e
4AA/	.	.	.
4AA/	2A/	4c/	.
4BB/	.	4d\	.
2C/	4G/	4.e\	4r
.	2c\	.	4ee\
.	.	8f\	.
4C/	.	2g\	4ee\
4D/	8B\	.	8dd\
.	8A\	.	8cc\
=33	=33	=33	=33
2E\	4G/	4g\	2b\
.	4E/	4g\	.
4E\	4G/	4e\	4b\
4C/	2A/	2d\	4cc\
1BB	.	.	1dd
.	8G#X/	4c/	.
!	!LO:SIC:v:s=8F#/	!	!
.	8F/	.	.
.	2G#/	4B/	.
.	.	4e\	.
=34-	=34-	=34-	=34-
4AA/	4A/	2.e\	4cc\
2A\	2c\	.	2a\
4G\	4B\	4e\	4b\
1F	2A/	2a\	2cc\
.	2A/	2a\	2dd\
=35	=35	=35	=35
2E\	2B\	2g\	2.ee\
2C#X/	2A/	4a\	.
.	.	4g\	4ee\
1BB	1A	4f\	2a\
.	.	4e\	.
.	.	2f\	2.dd\
=36-	=36-	=36-	=36-
1AA	1A	1e	.
.	.	.	8cc#X\
.	.	.	8b\
.	.	.	2cc#\
2.D/	2A/	2.f#X\	1dd
.	2d\	.	.
4D/	.	4f#\	.
=37	=37	=37	=37
2BB/	2d\	2g\	00r
4C/	4c\	4e\	.
4C/	4c\	4e\	.
2G\	2B\	2.d\	.
2D/	2A/	.	.
.	.	4c/	.
=38-	=38-	=38-	=38-
2.E\	2G/	4B/	.
.	.	2g\	.
.	1c	.	.
4F\	.	8f\	.
.	.	8e\	.
2G\	.	4d\	.
.	.	4c/	.
2GG/	2B\	2d\	.
=39	=39	=39	=39
1C	2.c\	2e\	2r
.	.	2g\	2ee\
.	4c\	.	.
1r	2A/	2a\	2cc\
.	4d\	4f\	4a\
.	4d\	4f\	4a\
=40-	=40-	=40-	=40-
0r	2B\	2d\	2dd\
.	2G/	2g\	2b\
.	2.c\	4a\	2.ee\
.	.	4g\	.
.	.	[y2g\	.
.	4B\	.	4dd\
=41	=41	=41	=41
!	!	!LO:N:xstem:cue	!
1r	2A/	4g\]	2cc\
.	.	8f#X\	.
.	.	8e\	.
.	2A/	2f#\	2cc\
2r	2G/	2g\	1b
2G\	2B\	2d\	.
=42-	=42-	=42-	=42-
2E\	2B\	2g\	2r
4C/	4c\	4g\	2ee\
4C/	4c\	4g\	.
2.F\	1A	2a\	2cc\
.	.	2fny\	4a\
4E\	.	.	4a\
=43	=43	=43	=43
2D/	2r	2f\	2dd\
4E\	4G/	4e\	4b\
4E\	4G/	4e\	4b\
2C/	2G/	2e\	2ee\
4AA/	4A/	4e\	4cc\
4AA/	4G/	4e\	4cc\
=44-	=44-	=44-	=44-
1D	4F#X/	1d	1a
.	4E/	.	.
.	2F#/	.	.
2.BB/	2G/	2.d\	2b\
.	2D/	.	[<2dd\
4AA/	.	4c/	.
=45	=45	=45	=45
2GG/	2.D/	4B/	4dd\]
.	.	4A/	4cc\
2GG/	.	2G/	4b\
.	4E/	.	8a\
.	.	.	8g\
*custos:DD	*custos:F	*custos:A	*custos:f
!!LO:LB:g=original
0D	2F#X/	2A/	4f#X/
.	.	.	4d/
.	2G/	2B/	2.g/
=46-	=46-	=46-	=46-
.	1A	2A/	.
.	.	.	8f#X/
.	.	.	8e/
.	.	1d	2f#/
2GG/	2B\	.	2g/
2G\	[<2B\	2d\	4g/
.	.	.	4a\
=47	=47	=47	=47
2G\	2B\]	1.d	4b\
.	.	.	4cc\
2F#X\	2A/	.	1dd
1G	2.B\	.	.
.	.	2d\	2b\
.	4c\	.	.
=48-	=48-	=48-	=48-
1GG	1d	1.g	1b
[1Dl	[1dl	.	[1al
.	.	4f#X\	.
.	.	4e\	.
=49-	=49-	=49-	=49-
0D]	0d]	0f#l	0a]
==	==	==	==
*-	*-	*-	*-
!!!system-decoration: *
!!!RDF**kern: > = above
!!!RDF**kern: < = below
!!!RDF**kern: l = terminal long
!!!ENC: Anastazja Marusiak
!!!END: 2021-12-17
!!!ENC: Andrzej Kubiczek
!!!END: 2021-12-22
